X: 40350
T: Tom Byrne's
R: reel
M: 4/4
K: Dmajor
|:BEed BedB|AFFE DE F/G/A|BEed BedB|AFDE FEEA|
BEed BedB|AFFE D3 A|BABc d/c/d fe|dBAF FE E2:|
|:gBeg fAdf|ed B/c/d AF Df|gBeg fAdf|BFAF E3 f|
gBeg fAdf|ed B/c/d AFDF|EBBA BcdB|A/2B/2A FD E3 z:|

